resources/img/scalable/actions/flypie-menu-favorites-symbolic.svg

<?xml version="1.0" encoding="UTF-8" standalone="no"?>
<svg
   xmlns:dc="http://purl.org/dc/elements/1.1/"
   xmlns:cc="http://creativecommons.org/ns#"
   xmlns:rdf="http://www.w3.org/1999/02/22-rdf-syntax-ns#"
   xmlns:svg="http://www.w3.org/2000/svg"
   xmlns="http://www.w3.org/2000/svg"
   xmlns:sodipodi="http://sodipodi.sourceforge.net/DTD/sodipodi-0.dtd"
   xmlns:inkscape="http://www.inkscape.org/namespaces/inkscape"
   width="4.2333mm"
   height="4.2333mm"
   version="1.1"
   viewBox="0 0 4.2333 4.2333"
   id="svg7369"
   sodipodi:docname="flypie-menu-favorites-symbolic.svg"
   inkscape:version="1.0.2 (e86c870879, 2021-01-15)">
  <defs
     id="defs7373" />
  <sodipodi:namedview
     pagecolor="#ffffff"
     bordercolor="#666666"
     borderopacity="1"
     objecttolerance="10"
     gridtolerance="10"
     guidetolerance="10"
     inkscape:pageopacity="0"
     inkscape:pageshadow="2"
     inkscape:window-width="1375"
     inkscape:window-height="930"
     id="namedview7371"
     showgrid="false"
     inkscape:zoom="21.521737"
     inkscape:cx="0.16108768"
     inkscape:cy="3.4652462"
     inkscape:window-x="0"
     inkscape:window-y="32"
     inkscape:window-maximized="0"
     inkscape:current-layer="svg7369" />
  <metadata
     id="metadata7357">
    <rdf:RDF>
      <cc:Work
         rdf:about="">
        <dc:format>image/svg+xml</dc:format>
        <dc:type
           rdf:resource="http://purl.org/dc/dcmitype/StillImage" />
        <dc:title />
      </cc:Work>
    </rdf:RDF>
  </metadata>
  <path
     d="M 3.9969576,1.6038266 C 4.0666729,1.814473 3.1598866,2.333485 3.0924959,2.5448923 3.0251252,2.7562985 3.4642805,3.7043083 3.285504,3.8357817 3.1067275,3.9672551 2.3328912,3.265159 2.1109602,3.2663929 1.8890703,3.2676444 1.1231273,3.978282 0.94293017,3.8488598 0.76273307,3.7194377 1.1912522,2.7665635 1.1215086,2.5559489 1.0517933,2.3453025 0.13921445,1.8364451 0.20660515,1.6250378 0.27397589,1.4136317 1.3126679,1.5267218 1.491459,1.3953277 1.6702384,1.2639042 1.872191,0.23873898 2.0940809,0.23748745 2.3159708,0.23623593 2.5293517,1.2590957 2.7095864,1.3884756 2.8898211,1.5178555 3.9272017,1.3931726 3.996917,1.603819 Z"
     fill="#2e3436"
     stop-color="#000000"
     style="font-variation-settings:normal"
     id="path7365" />
</svg>

<svg xmlns="http://www.w3.org/2000/svg" width="16" height="16" viewBox="0 0 4.233 4.233"><path d="M3.997 1.604c.07.21-.837.73-.905.94-.067.212.372 1.16.194 1.292-.18.131-.953-.57-1.175-.57-.222.002-.988.712-1.168.583-.18-.13.248-1.082.179-1.293-.07-.21-.983-.72-.915-.931.067-.211 1.106-.098 1.284-.23.18-.131.381-1.156.603-1.158.222 0 .435 1.022.616 1.151.18.13 1.217.005 1.287.216Z" fill="#2e3436" style="font-variation-settings:normal"/></svg>
